img/logo-csc.svg

<?xml version="1.0" encoding="UTF-8"?>
<svg width="66px" height="24px" viewBox="0 0 66 24" version="1.1" xmlns="http://www.w3.org/2000/svg" xmlns:xlink="http://www.w3.org/1999/xlink">
    <!-- Generator: Sketch 48.1 (47250) - http://www.bohemiancoding.com/sketch -->
    <title>Combined Shape</title>
    <desc>Created with Sketch.</desc>
    <defs></defs>
    <g id="Artboard-2-Copy-8" stroke="none" stroke-width="1" fill="none" fill-rule="evenodd" transform="translate(-220.000000, -25.000000)">
        <g id="Page-1" transform="translate(220.000000, 25.000000)" fill="#FFFFFF">
            <path d="M23,9.51471106 L14.1140243,9.49319673 L17.1273516,6.37361934 C15.7713544,5.01821674 13.922537,4.193757 11.8870567,4.193757 C7.71775469,4.193757 4.34668753,7.68330399 4.34668753,12 C4.34668753,16.3466624 7.71775469,19.8365936 11.8870567,19.8365936 C14.5778986,19.8365936 16.9432863,18.3670882 18.2740489,16.193757 L21.7041208,18.397823 C19.6341282,21.7955499 15.9969828,24 11.8870567,24 C5.32267902,24 0,18.795838 0,12 C0,5.204162 5.32267902,0 11.8870567,0 C15.0239601,0 17.8829101,1.30430607 19.9822195,3.41808868 L23,0.293901073 L23,9.51471106 Z M27.5961587,17.34825 C29.0097457,18.753 31.0708109,19.589625 33.3972239,19.589625 C37.4897891,19.589625 39.3453761,15.13725 34.8104413,13.8825 L31.0412457,12.89625 C27.8315717,12.03 25.6234196,9.819 25.6234196,6.68175 C25.5350935,3.096375 29.2451587,0.108375 33.3972239,0.198 C36.2532239,0.198 38.9325717,1.12425 40.9352457,2.7075 L38.6088326,6.054375 C37.1956152,4.888875 35.4579196,4.2915 33.3972239,4.2915 C29.9517674,4.2915 28.2144413,7.84725 32.1015283,8.982375 L35.6349413,9.908625 C39.0212674,10.77525 41.7597457,12.98625 41.7597457,16.631625 C41.8477022,20.5155 37.9609848,23.71275 33.3972239,23.623125 C30.2463109,23.623125 27.3603761,22.54725 25.24055,20.72475 L27.5961587,17.34825 Z M62.3651301,7.83659356 C60.9553055,5.63252761 58.4482953,4.193757 55.5967924,4.193757 C51.1785556,4.193757 47.6062135,7.68368817 47.6062135,12 C47.6062135,16.3466624 51.1785556,19.8365936 55.5967924,19.8365936 C58.4482953,19.8365936 60.9553055,18.3674724 62.3651301,16.193757 L66,18.397823 C63.8068085,21.7955499 59.9525015,24 55.5967924,24 C48.6404781,24 43,18.795838 43,12 C43,5.20377781 48.6404781,0 55.5967924,0 C59.9525015,0 63.8068085,2.23441652 66,5.60217704 L62.3651301,7.83659356 Z M52,11.5 C52,9.56695022 53.5669502,8 55.5,8 C57.4330498,8 59,9.56695022 59,11.5 C59,13.4330498 57.4330498,15 55.5,15 C53.5669502,15 52,13.4330498 52,11.5 Z" id="Combined-Shape"></path>
        </g>
    </g>
</svg>

<svg width="66" height="24" xmlns="http://www.w3.org/2000/svg">
    <path d="M23 9.515l-8.886-.022 3.013-3.12a7.382 7.382 0 00-5.24-2.18c-4.17 0-7.54 3.49-7.54 7.807 0 4.347 3.37 7.837 7.54 7.837 2.69 0 5.056-1.47 6.387-3.643l3.43 2.204C19.634 21.796 15.997 24 11.887 24 5.323 24 0 18.796 0 12S5.323 0 11.887 0c3.137 0 5.996 1.304 8.095 3.418L23 .294v9.22zm4.596 7.833c1.414 1.405 3.475 2.242 5.801 2.242 4.093 0 5.948-4.453 1.413-5.707l-3.769-.987c-3.21-.866-5.418-3.077-5.418-6.214-.088-3.586 3.622-6.574 7.774-6.484 2.856 0 5.536.926 7.538 2.51L38.61 6.053c-1.413-1.165-3.151-1.763-5.212-1.763-3.445 0-5.183 3.556-1.295 4.691l3.533.927c3.386.866 6.125 3.077 6.125 6.723.088 3.883-3.799 7.08-8.363 6.991-3.15 0-6.037-1.076-8.156-2.898l2.355-3.377zm34.77-9.511c-1.41-2.204-3.918-3.643-6.77-3.643-4.417 0-7.99 3.49-7.99 7.806 0 4.347 3.573 7.837 7.99 7.837 2.852 0 5.36-1.47 6.77-3.643L66 18.398C63.807 21.796 59.953 24 55.597 24 48.64 24 43 18.796 43 12S48.64 0 55.597 0C59.953 0 63.807 2.234 66 5.602l-3.635 2.235zM52 11.5a3.5 3.5 0 117 0 3.5 3.5 0 01-7 0z"
          fill="#FFF" fill-rule="evenodd"/>
</svg>
